X: 700
T: Fu pantao
L: 1/16
M: 2/4
K: Bb
b2 b gf4 [I:setbarnb 1]| 
g b g fd4 | 
b2 b g d' f' d' c' | 
b c' b g f2 z2 | 
b2 f g b2 b2 | 
d' c' d' c' b2 g f | 
f2 f g2< d2 c | 
B2z6 | 
b4g2 f2 | 
f2 d'2 c'2 d'2 | 
b2> g2f4 | 
f2> g2b4 | 
d2> c2a4 | 
f2> g2a4 | 
f gd4c2 | 
B2z6 |]

@@@ Tune index: 9574
